X:1
T:St. Kevin, 76.76 D
T:St. Kevin, 76.76 D
T:Arthur Seymour Sullivan, 1872
T:Public Domain Courtesy of the Cyber Hymnal™
C:Arthur Seymour Sullivan, 1872
Z:Public Domain
Z:Courtesy of the Cyber Hymnal™
%%score ( 1 2 ) ( 3 4 )
L:1/8
Q:1/4=113
M:4/4
K:G
V:1 treble 
V:2 treble 
V:3 bass 
V:4 bass 
V:1
 [GB]2 [GB]2 ([GB][FA]) G2 | [GB]2 [Fc]2 [Gd]4 | [EG]2 [FA]2 [GB]2 [Ac]2 | [GB]4 [FA]4 | %4
 [GA]2 [GA]2 (^cB) [EA]2 | [Dd]2 [Dd]2 [DF]4 | [FA]2 [FA]2 [GB]2 ([FA][EG]) | [DF]4 D4 | %8
 [FA]2 [FA]2 ([FA][EG]) [DA]2 | [DB]2 [FA]2 [GB]4 | [^GB]2 [GB]2 (cd) [Ee]2 | [DG]4 [DF]4 | %12
 [GB]2 [GB]2 ([GB][FA]) G2 | [GB]2 [Gc]2 [Gd]4 | G2 [GA]2 [GB]2 [Gc]2 | [FA]4 G4 |] %16
V:2
 x6 G2 | x8 | x8 | x8 | x4 E2 x2 | x8 | x8 | x4 D4 | x8 | x8 | x4 A2 x2 | x8 | x6 G2 | x8 | G2 x6 | %15
 x4 G4 |] %16
V:3
 [G,D]2 [G,D]2 (DC) [G,B,]2 | [G,D]2 [A,D]2 [B,D]4 | [E,B,]2 [D,D]2 [G,D]2 [C,E]2 | [D,D]4 [D,D]4 | %4
 [E,^C]2 [E,C]2 (A,B,) [G,C]2 | [F,D]2 [F,A,]2 [B,D]4 | [A,D]2 [A,D]2 [A,,^C]2 [A,,C]2 | %7
 [D,D]4 D,4 | [D,C]2 [D,C]2 ([D,C][E,B,]) [F,A,]2 | G,2 [D,D]2 [G,D]4 | [E,E]2 [E,E]2 (ED) [C,C]2 | %11
 [D,B,]4 [D,A,]4 | [G,D]2 [G,D]2 (DC) [G,B,]2 | [G,D]2 [A,D]2 [B,=F]4 | [CE]2 [CE]2 [B,D]2 [A,C]2 | %15
 [D,C]4 [G,B,]4 |] %16
V:4
 x4 G,2 x2 | x8 | x8 | x8 | x4 G,2 x2 | x8 | x8 | x4 D,4 | x8 | G,2 x6 | x4 A,2 x2 | x8 | %12
 x4 G,2 x2 | x8 | x8 | x8 |] %16

